Yaru++/apps/16/mono-runtime.svg

<svg height="16" width="16" xmlns="http://www.w3.org/2000/svg"><path d="m2.875 1c-1.0341288 0-1.875.8408712-1.875 1.875v10.25c0 1.034129.8408712 1.875 1.875 1.875h10.25c1.034129 0 1.875-.840871 1.875-1.875v-10.25c0-1.0341288-.840871-1.875-1.875-1.875zm11.125 1v12l-10.8125638-.04978s.66022-.976286.66022-.97952c0-.06242 2.0868378-2.572024 2.1308594-2.5625.025146.0055.9595126.40204 2.0742188.880859 1.9037834.817765 2.0286006.865855 2.0800776.796876.07785-.104327.346447-.666279.488282-1.021485l.121094-.300781-.203126-.111328c-.287288-.157111-.7087992-.506101-.9726558-.8066379-.2407763-.274247-.6757812-.9366738-.6757812-1.0292969 0-.03065.1379767.1095199.3066406.3105469.4737545.564653 1.5662044 1.4480079 1.6347654 1.3222659.08136-.149214.133466-.5891956.13086-1.0996096-.0032-.62312-.08434-1.107763-.298829-1.7773438l-.121093-.3769531-.5937502-.1855469c-.3268243-.1027339-.6549003-.2053733-.7285157-.2285156-.2567293-.080708-.0946052-.0780416.28125.0058594.4493969.1003492.9048389.1851262 1.1874999.2207031.248877.031331.303465-.0159967.330078-.2929687.033939-.3531462-.193913-1.3288671-.423828-1.8144532-.091761-.1938031-.132691-.2362048-.316406-.3203125-.611551-.2799754-2.5250239-.5418804-3.3378908-.4570312-.3513853.036669-.7136772.1222556-.8261718.1953125-.031708.020592.1957682.0786379.5859375.1503906.35027.064408.6047031.1233786.5664062.1308594-.0383.00746-.5882392-.0533564-1.2226562-.1347656-1.113767-.1429131-1.1568004-.1444265-1.234375-.0742188-.1617408.1463723-.393497.5456834-.4414063.7597656-.0463846.2072669-.0426532.2324301.0605469.4433594.1758992.3595223.5018106.6196499 1.2460937.9960938.3519471.1780085.6315238.3333206.6210938.34375-.0104307.0104383-.3113072-.1025084-.6679688-.25l-.6484374-.2675782-.9511719.265625c-.5233638.1464616-1.9578507.2850189-1.9793253.2850189l-.0499716-4.9666595z" fill="#808080"/></svg>

<svg xmlns="http://www.w3.org/2000/svg" width="16" height="16" version="1.1">
 <path style="fill:#808080" d="M 2.875,1 C 1.8408712,1 1,1.8408712 1,2.875 v 10.25 C 1,14.159129 1.8408712,15 2.875,15 h 10.25 C 14.159129,15 15,14.159129 15,13.125 V 2.875 C 15,1.8408712 14.159129,1 13.125,1 Z M 14,2 V 14 L 3.1874362,13.95022 c 0,0 0.66022,-0.976286 0.66022,-0.97952 0,-0.06242 2.0868378,-2.572024 2.1308594,-2.5625 0.025146,0.0055 0.9595126,0.40204 2.0742188,0.880859 1.9037834,0.817765 2.0286006,0.865855 2.0800776,0.796876 0.07785,-0.104327 0.346447,-0.666279 0.488282,-1.021485 l 0.121094,-0.300781 -0.203126,-0.111328 C 10.251774,10.49523 9.8302628,10.14624 9.5664062,9.8457031 9.3256299,9.5714561 8.890625,8.9090293 8.890625,8.8164062 c 0,-0.03065 0.1379767,0.1095199 0.3066406,0.3105469 0.4737545,0.564653 1.5662044,1.4480079 1.6347654,1.3222659 0.08136,-0.149214 0.133466,-0.5891956 0.13086,-1.0996096 -0.0032,-0.62312 -0.08434,-1.107763 -0.298829,-1.7773438 L 10.542969,7.1953125 9.9492188,7.0097656 C 9.6223945,6.9070317 9.2943185,6.8043923 9.2207031,6.78125 8.9639738,6.700542 9.1260979,6.7032084 9.5019531,6.7871094 9.95135,6.8874586 10.406792,6.9722356 10.689453,7.0078125 10.93833,7.0391435 10.992918,6.9918158 11.019531,6.7148438 11.05347,6.3616976 10.825618,5.3859767 10.595703,4.9003906 10.503942,4.7065875 10.463012,4.6641858 10.279297,4.5800781 9.667746,4.3001027 7.7542731,4.0381977 6.9414062,4.1230469 6.5900209,4.1597159 6.227729,4.2453025 6.1152344,4.3183594 6.0835264,4.3389514 6.3110026,4.3969973 6.7011719,4.46875 7.0514419,4.533158 7.305875,4.5921286 7.2675781,4.5996094 7.2292781,4.6070694 6.6793389,4.546253 6.0449219,4.4648438 4.9311549,4.3219307 4.8881215,4.3204173 4.8105469,4.390625 4.6488061,4.5369973 4.4170499,4.9363084 4.3691406,5.1503906 4.322756,5.3576575 4.3264874,5.3828207 4.4296875,5.59375 4.6055867,5.9532723 4.9314981,6.2133999 5.6757812,6.5898438 6.0277283,6.7678523 6.307305,6.9231644 6.296875,6.9335938 6.2864443,6.9440321 5.9855678,6.8310854 5.6289062,6.6835938 L 4.9804688,6.4160156 4.0292969,6.6816406 C 3.5059331,6.8281022 2.0714462,6.9666595 2.0499716,6.9666595 L 2,2 Z"/>
</svg>
